dist/icons/social/telegram.svg

<svg viewBox="0 0 30 30" xmlns="http://www.w3.org/2000/svg">
<path d="M28.0201 3.25268C27.6351 7.65256 25.9493 18.338 25.096 23.2654C24.7318 25.3531 24.0242 26.049 23.3374 26.1163C21.839 26.2622 20.7047 25.05 19.2478 24.0174C16.9793 22.4124 15.689 21.4134 13.4933 19.842C10.9438 18.0349 12.5984 17.036 14.0448 15.4085C14.4298 14.9819 21.0273 8.5056 21.1522 7.92194C21.173 7.84337 21.1834 7.57399 21.0273 7.42807C20.8712 7.28216 20.6527 7.33828 20.4966 7.37675C20.2676 7.42433 16.6394 10.0096 9.61185 15.1279C8.58512 15.8911 7.65204 16.2615 6.81262 16.2391C5.88649 16.2166 4.11746 15.6778 2.79589 15.2177C1.18295 14.6564 -0.107396 14.3534 0.00707014 13.3881C0.062569 12.8868 0.704276 12.3742 1.93219 11.8504C9.45229 8.31853 14.468 5.98764 16.9793 4.85774C24.1491 1.64762 25.6372 1.08641 26.6049 1.06396C26.8234 1.06396 27.2917 1.12009 27.6039 1.38947C27.8076 1.58268 27.9375 1.85073 27.9681 2.14149C28.0244 2.50857 28.0418 2.88135 28.0201 3.25268Z"/>
</svg>

<svg viewBox="0 0 30 30" xmlns="http://www.w3.org/2000/svg"><path d="M28.02 3.253c-.385 4.4-2.07 15.085-2.924 20.012-.364 2.088-1.072 2.784-1.759 2.851-1.498.146-2.632-1.066-4.09-2.099-2.268-1.605-3.558-2.604-5.754-4.175-2.55-1.807-.895-2.806.552-4.433.385-.427 6.982-6.903 7.107-7.487.021-.079.031-.348-.125-.494-.156-.146-.374-.09-.53-.051-.23.047-3.858 2.633-10.885 7.75-1.027.764-1.96 1.135-2.8 1.112-.926-.022-2.695-.561-4.016-1.021-1.613-.562-2.903-.865-2.789-1.83.056-.501.697-1.014 1.925-1.538 7.52-3.53 12.536-5.862 15.048-6.992 7.17-3.21 8.658-3.772 9.626-3.794.218 0 .687.056.999.325.204.194.334.462.364.752.056.368.074.74.052 1.112z"/></svg>
